assets/img/icons/address.svg

<svg width="21" height="21" viewBox="0 0 21 21" fill="none" xmlns="http://www.w3.org/2000/svg">
<g clip-path="url(#clip0_973_3822)">
<path d="M14.0056 3.45208C13.0698 2.51567 11.8246 2 10.5 2C9.17543 2 7.93018 2.51567 6.99376 3.45208C5.06072 5.38512 5.06072 8.53083 6.99943 10.4695L8.76672 12.1979C9.24484 12.6654 9.87243 12.8991 10.5 12.8991C11.1276 12.8991 11.7552 12.6654 12.2333 12.1979L14.0056 10.4639C14.942 9.52746 15.4583 8.28221 15.4583 6.95762C15.4583 5.63304 14.942 4.38921 14.0056 3.45208ZM10.5 9.07625C9.3263 9.07625 8.37501 8.12496 8.37501 6.95125C8.37501 5.77754 9.3263 4.82625 10.5 4.82625C11.6737 4.82625 12.625 5.77754 12.625 6.95125C12.625 8.12496 11.6737 9.07625 10.5 9.07625ZM19 13.8731C19.0014 14.1238 18.8704 14.3562 18.6565 14.4844L11.6716 18.6756C11.3103 18.8923 10.9052 19.0007 10.5007 19.0007C10.0963 19.0007 9.69039 18.8923 9.32984 18.6756L2.34355 14.4844C2.12893 14.3555 1.99859 14.1231 2.00001 13.8731C2.00143 13.623 2.13459 13.3921 2.35064 13.266L5.78959 11.253C5.86043 11.3309 5.93339 11.4081 6.00847 11.4832L7.77576 13.2108C8.50393 13.9234 9.47222 14.3165 10.5 14.3165C11.5278 14.3165 12.4954 13.9234 13.2243 13.2108L15.0078 11.4662C15.0773 11.3967 15.1453 11.3252 15.2111 11.253L18.6494 13.2653C18.8654 13.3921 18.9986 13.6237 19 13.8731Z" fill="white"/>
</g>
<defs>
<clipPath id="clip0_973_3822">
<rect width="17" height="17" fill="white" transform="translate(2 2)"/>
</clipPath>
</defs>
</svg>

<svg width="21" height="21" fill="none" xmlns="http://www.w3.org/2000/svg"><g clip-path="url(#a)"><path d="M14.006 3.452A4.923 4.923 0 0 0 10.5 2c-1.325 0-2.57.516-3.506 1.452a4.966 4.966 0 0 0 .005 7.018l1.768 1.728a2.472 2.472 0 0 0 1.733.701c.628 0 1.255-.234 1.733-.701l1.773-1.734a4.927 4.927 0 0 0 1.452-3.506 4.926 4.926 0 0 0-1.452-3.506ZM10.5 9.076a2.125 2.125 0 1 1 0-4.25 2.125 2.125 0 0 1 0 4.25Zm8.5 4.797a.708.708 0 0 1-.343.611l-6.985 4.192a2.275 2.275 0 0 1-2.342 0l-6.986-4.192a.708.708 0 0 1 .007-1.218l3.439-2.013c.07.078.143.155.218.23l1.768 1.728a3.873 3.873 0 0 0 2.724 1.105 3.874 3.874 0 0 0 2.724-1.105l1.784-1.745c.07-.07.137-.14.203-.213l3.438 2.012a.71.71 0 0 1 .351.608Z" fill="#fff"/></g><defs><clipPath id="a"><path fill="#fff" transform="translate(2 2)" d="M0 0h17v17H0z"/></clipPath></defs></svg>
